icon-themes/sifr_svg/cmd/sc_recsearch.svg

<svg viewBox="0 0 16 16" xmlns="http://www.w3.org/2000/svg"><path d="m6.5 1a5.5 5.5 0 0 0 -5.5 5.5 5.5 5.5 0 0 0 5.5 5.5 5.5 5.5 0 0 0 3.1074219-.962891l3.6738281 3.650391c.19029.18267.46186.3125.71875.3125h1v-.414062-.585938c0-.343292-.0903-.55232-.28125-.75l-3.677734-3.65625a5.5 5.5 0 0 0 .958984-3.09375 5.5 5.5 0 0 0 -5.5-5.5zm0 2a3.5 3.5 0 0 1 3.5 3.5 3.5 3.5 0 0 1 -3.5 3.5 3.5 3.5 0 0 1 -3.5-3.5 3.5 3.5 0 0 1 3.5-3.5z" fill="#555753"/></svg>

<svg xmlns="http://www.w3.org/2000/svg" viewBox="0 0 16 16">
  <path
     style="fill:#555753"
     d="M 6.5 1 A 5.5 5.5 0 0 0 1 6.5 A 5.5 5.5 0 0 0 6.5 12 A 5.5 5.5 0 0 0 9.6074219 11.037109 L 13.28125 14.6875 C 13.47154 14.87017 13.74311 15 14 15 L 15 15 L 15 14.585938 L 15 14 C 15 13.656708 14.9097 13.44768 14.71875 13.25 L 11.041016 9.59375 A 5.5 5.5 0 0 0 12 6.5 A 5.5 5.5 0 0 0 6.5 1 z M 6.5 3 A 3.5 3.5 0 0 1 10 6.5 A 3.5 3.5 0 0 1 6.5 10 A 3.5 3.5 0 0 1 3 6.5 A 3.5 3.5 0 0 1 6.5 3 z "
     />
</svg>
